X:1
M:4/4
K:D
L:1/8
C:Paul Spencer
DDDD CCE>E |D6 zF |FFG<F ED3-|D4 z3D |
EEEE =F2C>=C |C4 z4 |A,A,G,>F, B,B,3-|B,4 z3B, |
EEED CA,B,B, |D6 z2 :|
